gnome-shell/src/keyboard-layout-filled-symbolic.svg

<svg version="1.1" viewBox="0 0 16 16" xmlns="http://www.w3.org/2000/svg">
 <path d="m3 1c-0.55228 0-1 0.44772-1 1v12.5c0 0.27614 0.22386 0.5 0.5 0.5s0.5-0.22386 0.5-0.5c1.3e-6 -6.51e-4 1.3e-6 -0.0013 0-2e-3 1.3e-6 -6.51e-4 1.3e-6 -0.0013 0-2e-3 1.3e-6 -6.51e-4 1.3e-6 -0.0013 0-2e-3 1.3e-6 -6.51e-4 1.3e-6 -0.0013 0-2e-3 1.3e-6 -6.51e-4 1.3e-6 -0.0013 0-2e-3 1.14e-5 -2e-3 1.14e-5 -0.0039 0-0.0059 1.3e-6 -6.51e-4 1.3e-6 -0.0013 0-2e-3v-5.4821h3.9922l0.72266 1.4473c0.16942 0.3388 0.51573 0.55278 0.89453 0.55273h4.3906c0.55228 0 1-0.44772 1-1v-6c0-0.55228-0.44772-1-1-1h-3.9922l-0.72266-1.4473c-0.16942-0.3388-0.51573-0.55278-0.89453-0.55273h-3.3906zm0.5 1h3.8828l0.72266 1.4473c0.16942 0.3388 0.51573 0.55278 0.89453 0.55273h3.5c0.277 0 0.5 0.223 0.5 0.5v5c0 0.277-0.223 0.5-0.5 0.5h-3.8828l-0.72266-1.4473c-0.16942-0.3388-0.51573-0.55278-0.89453-0.55273h-3.5c-0.277 0-0.5-0.223-0.5-0.5v-5c0-0.277 0.223-0.5 0.5-0.5z" fill="#808080" solid-color="#000000" style="font-feature-settings:normal;font-variant-alternates:normal;font-variant-caps:normal;font-variant-ligatures:normal;font-variant-numeric:normal;font-variant-position:normal;isolation:auto;mix-blend-mode:normal;shape-padding:0;text-decoration-color:#000000;text-decoration-line:none;text-decoration-style:solid;text-indent:0;text-orientation:mixed;text-transform:none;white-space:normal"/>
</svg>

<svg viewBox="0 0 16 16" xmlns="http://www.w3.org/2000/svg"><path d="M3 1a1 1 0 0 0-1 1v12.5a.5.5 0 1 0 1-.018V9h3.992l.723 1.447a1 1 0 0 0 .894.553H13a1 1 0 0 0 1-1V4a1 1 0 0 0-1-1H9.008l-.723-1.447A1 1 0 0 0 7.391 1H4zm.5 1h3.883l.722 1.447A1 1 0 0 0 9 4h3.5c.277 0 .5.223.5.5v5c0 .277-.223.5-.5.5H8.617l-.722-1.447A1 1 0 0 0 7 8H3.5a.499.499 0 0 1-.5-.5v-5c0-.277.223-.5.5-.5z" fill="gray" style="font-feature-settings:normal;font-variant-alternates:normal;font-variant-caps:normal;font-variant-ligatures:normal;font-variant-numeric:normal;font-variant-position:normal;isolation:auto;mix-blend-mode:normal;shape-padding:0;text-decoration-color:#000;text-decoration-line:none;text-decoration-style:solid;text-indent:0;text-orientation:mixed;text-transform:none;white-space:normal"/></svg>
